!!!OTL: Die wiedergefundene Schwester (Suedeli - Ballade) Ohne Text (Braut Sondeli)
!!!ARE: Europa, Mitteleuropa, Deutschland / France, Lothringen
!!!YOR: 4, S. 37
!!    ????
!!!SCT: Q0072R
!!!YEM: Copyright 1995, estate of Helmut Schaffrath.
**kern
*ICvox
*Ivox
*M3/4
*k[b-]
*F:
{4c
=1
4.f
8e
4f
=2
4g
4f
4g
=3
4.a
8g
8a
8g
=4
2f}
{8f
8a
=5
4.cc
8dd
4cc
=6
4a
4g
4cc
=7
2a}
{4a
=8
4a
4g
4a
=9
4.a
8b-
8cc
8dd
=10
4.cc
8b-
4a
=11
2g
4r}
=12
{2f
4a
=13
2.g
=14
4a
4cc
4a
=15
4g
4f
4g
=16
2f}
==
!!!AGN: Ballade, Entfuehrung, Adelige als Dienstmagd, Rueckkehr
!! Textlose Uebertragung einer Phonogrammaufnahme.
!!!ONB: ESAC (Essen Associative Code) Database: BALLADE
!!!AMT: simple triple
!!!AIN: vox
!!!EED: Helmut Schaffrath
!!!EEV: 1.0
*-
